X: 21172
T: The CARDIN O'T
Q: "Lively"
%R: reel
B: "Edinburgh Repository of Music" v.1 p.117 #2
F: http://digital.nls.uk/special-collections-of-printed-music/pageturner.cfm?id=87776133
Z: 2015 John Chambers <jc:trillian.mit.edu>
M: C
L: 1/8
K: G
B>A |\
G3A B3c | d2ge dBAG | ~c3e dBAG | FGAB A3B |\
cBcd efge | dBAG GFED | G3A B<d A>c | B2G2 G2 :|
|: ge |\
dBGB d3e | dBGB d2cB | {d}cBcd efga | f2d2 d2cB |\
{d}cBcd efge | dB{B}AG GFED | ~G3A B<d A<c | B2G2 G2 :|

%%sep 2 1 500
%%sep 1 1 500

